X:44
T:Bruemarsj e. Per Sloijva ()
O:norway
A:Breim, Nordfjord
R:Wedding march
M:6/8
N:Yorkshire Dales Scandy weekend, June '99; workshop tunes
Z:photocopies from Arne S\o{}lvberg
K:D
V:1
[A,6D6A6e6]|]\
uA|:\
d3 (dcd) | B3 A3 | e3 (e^de) | c3 A3 |\
d3 (dcd) | B3 g3 |
f(ef) b(ge) |1 (d2f) (d2A) :|2 (d2f) (d2uE) \
K:A
|: vc2(c {d}c)Bc | A2E A(ce) |
d2B G(Bd) | ([f2d2]e) (c2[Ac]) | \
c2(c {d}c)Bc | d3 [f3d3] | f(ec) e(dB) |1 (A2c) {G}uA2ue :|2 (A2c) A2|]
V:2
z6|] \
F|:\
F3 (FEF) | G3 F3 | c3 (c^Bc) | A3 G3|\
F3 (FEF) | G3 B3 | A(GA) B(BG) |1 (F2A) (F2F) :|2 (F2A) (F2E) \
K:A
|: uE2(E E)DE| E2B, E(Ac) | B2G E(GB) | (d2c) (A2E) |\
A2(A {B}A)GA | F3 B3 | e(cA) GE2 |1 (B,2E) (B,2B,) :|2 (B,2E) B,2 |]
